svg/icon/tau.svg

<svg xmlns="http://www.w3.org/2000/svg" xmlns:xlink="http://www.w3.org/1999/xlink" width="32" height="32" viewBox="0 0 32 32"><defs><linearGradient id="tau-c" x1="50%" x2="50%" y1="0%" y2="100%"><stop offset="0%" stop-color="#FFF" stop-opacity=".5"/><stop offset="100%" stop-opacity=".5"/></linearGradient><circle id="tau-b" cx="16" cy="15" r="15"/><filter id="tau-a" width="111.7%" height="111.7%" x="-5.8%" y="-4.2%" filterUnits="objectBoundingBox"><feOffset dy=".5" in="SourceAlpha" result="shadowOffsetOuter1"/><feGaussianBlur in="shadowOffsetOuter1" result="shadowBlurOuter1" stdDeviation=".5"/><feComposite in="shadowBlurOuter1" in2="SourceAlpha" operator="out" result="shadowBlurOuter1"/><feColorMatrix in="shadowBlurOuter1" values="0 0 0 0 0 0 0 0 0 0 0 0 0 0 0 0 0 0 0.199473505 0"/></filter><path id="tau-e" d="M8.09408194,12.6783005 L10.2033384,14.7875569 L6,14.7875569 L8.09408194,12.6783005 Z M10.2033384,15.2276176 L8.09408194,17.3216995 L6,15.2276176 L10.2033384,15.2276176 Z M13.0561457,12.3748103 L10.9468892,14.4688923 L10.9468892,10.2655539 L13.0561457,12.3748103 Z M10.5068285,14.4688923 L8.41274659,12.3748103 L10.5068285,10.2655539 L10.5068285,14.4688923 Z M13.3596358,12.0561457 L11.2655539,9.96206373 L15.4688923,9.96206373 L13.3596358,12.0561457 Z M13.3596358,7.41274659 L15.4688923,9.52200303 L11.2655539,9.52200303 L13.3596358,7.41274659 Z M18.3216995,7.10925645 L16.2124431,9.20333839 L16.2124431,5 L18.3216995,7.10925645 Z M15.7723824,9.20333839 L13.6783005,7.10925645 L15.7723824,5 L15.7723824,9.20333839 Z M13.0561457,17.6403642 L10.9468892,19.7344461 L10.9468892,15.5311077 L13.0561457,17.6403642 Z M8.41274659,17.6403642 L10.5068285,15.5311077 L10.5068285,19.7344461 L8.41274659,17.6403642 Z M18.6251897,12.0561457 L16.5311077,9.96206373 L20.7344461,9.96206373 L18.6251897,12.0561457 Z M16.5311077,9.52200303 L18.6251897,7.41274659 L20.7344461,9.52200303 L16.5311077,9.52200303 Z M15.4688923,20.4931715 L13.3596358,22.5872534 L11.2655539,20.4931715 L15.4688923,20.4931715 Z M13.3596358,17.9438543 L15.4688923,20.0531108 L11.2655539,20.0531108 L13.3596358,17.9438543 Z M23.5872534,12.3748103 L21.477997,14.4688923 L21.477997,10.2655539 L23.5872534,12.3748103 Z M18.9438543,12.3748103 L21.0379363,10.2655539 L21.0379363,14.4688923 L18.9438543,12.3748103 Z M13.6783005,22.9059181 L15.7723824,20.7966616 L15.7723824,25 L13.6783005,22.9059181 Z M16.2124431,20.7966616 L18.3216995,22.9059181 L16.2124431,25 L16.2124431,20.7966616 Z M18.6251897,22.5872534 L16.5311077,20.4931715 L20.7344461,20.4931715 L18.6251897,22.5872534 Z M18.6251897,17.9438543 L20.7344461,20.0531108 L16.5311077,20.0531108 L18.6251897,17.9438543 Z M21.477997,15.5311077 L23.5872534,17.6403642 L21.477997,19.7344461 L21.477997,15.5311077 Z M18.9438543,17.6403642 L21.0379363,15.5311077 L21.0379363,19.7344461 L18.9438543,17.6403642 Z M23.8907436,17.3216995 L21.7966616,15.2276176 L26,15.2276176 L23.8907436,17.3216995 Z M23.8907436,12.6783005 L26,14.7875569 L21.7966616,14.7875569 L23.8907436,12.6783005 Z"/><filter id="tau-d" width="117.5%" height="117.5%" x="-8.8%" y="-6.2%" filterUnits="objectBoundingBox"><feOffset dy=".5" in="SourceAlpha" result="shadowOffsetOuter1"/><feGaussianBlur in="shadowOffsetOuter1" result="shadowBlurOuter1" stdDeviation=".5"/><feColorMatrix in="shadowBlurOuter1" values="0 0 0 0 0 0 0 0 0 0 0 0 0 0 0 0 0 0 0.204257246 0"/></filter></defs><g fill="none" fill-rule="evenodd"><use fill="#000" filter="url(#tau-a)" xlink:href="#tau-b"/><use fill="#7B346E" xlink:href="#tau-b"/><use fill="url(#tau-c)" style="mix-blend-mode:soft-light" xlink:href="#tau-b"/><circle cx="16" cy="15" r="14.5" stroke="#000" stroke-opacity=".097"/><g fill-rule="nonzero"><use fill="#000" filter="url(#tau-d)" xlink:href="#tau-e"/><use fill="#FFF" fill-rule="evenodd" xlink:href="#tau-e"/></g></g></svg>

<svg xmlns="http://www.w3.org/2000/svg" xmlns:xlink="http://www.w3.org/1999/xlink" width="32" height="32" viewBox="0 0 32 32"><defs><linearGradient id="c" x1="50%" x2="50%" y1="0%" y2="100%"><stop offset="0%" stop-color="#FFF" stop-opacity=".5"/><stop offset="100%" stop-opacity=".5"/></linearGradient><circle id="b" cx="16" cy="15" r="15"/><filter id="a" width="111.7%" height="111.7%" x="-5.8%" y="-4.2%" filterUnits="objectBoundingBox"><feOffset dy=".5" in="SourceAlpha" result="shadowOffsetOuter1"/><feGaussianBlur in="shadowOffsetOuter1" result="shadowBlurOuter1" stdDeviation=".5"/><feComposite in="shadowBlurOuter1" in2="SourceAlpha" operator="out" result="shadowBlurOuter1"/><feColorMatrix in="shadowBlurOuter1" values="0 0 0 0 0 0 0 0 0 0 0 0 0 0 0 0 0 0 0.199473505 0"/></filter><path id="e" d="M8.094 12.678l2.11 2.11H6l2.094-2.11zm2.11 2.55l-2.11 2.094L6 15.228h4.203zm2.852-2.853l-2.11 2.094v-4.203l2.11 2.109zm-2.55 2.094l-2.093-2.094 2.094-2.11v4.204zm2.854-2.413l-2.094-2.094h4.203l-2.11 2.094zm0-4.643l2.109 2.109h-4.203l2.094-2.11zm4.962-.304l-2.11 2.094V5l2.11 2.11zm-2.55 2.094L13.678 7.11 15.772 5v4.203zm-2.716 8.437l-2.11 2.094v-4.203l2.11 2.11zm-4.643 0l2.094-2.109v4.203L8.413 17.64zm10.212-5.584l-2.094-2.094h4.203l-2.109 2.094zm-2.094-2.534l2.094-2.11 2.11 2.11H16.53zM15.47 20.493l-2.11 2.094-2.093-2.094h4.203zm-2.11-2.55l2.11 2.11h-4.203l2.094-2.11zm10.228-5.568l-2.109 2.094v-4.203l2.11 2.109zm-4.643 0l2.094-2.11v4.204l-2.094-2.094zm-5.266 10.53l2.094-2.108V25l-2.094-2.094zm2.534-2.108l2.11 2.109L16.212 25v-4.203zm2.413 1.79l-2.094-2.094h4.203l-2.109 2.094zm0-4.643l2.11 2.11H16.53l2.094-2.11zm2.853-2.413l2.11 2.11-2.11 2.093v-4.203zm-2.534 2.11l2.094-2.11v4.203l-2.094-2.094zm4.947-.32l-2.094-2.093H26l-2.11 2.094zm0-4.643L26 14.788h-4.203l2.094-2.11z"/><filter id="d" width="117.5%" height="117.5%" x="-8.8%" y="-6.2%" filterUnits="objectBoundingBox"><feOffset dy=".5" in="SourceAlpha" result="shadowOffsetOuter1"/><feGaussianBlur in="shadowOffsetOuter1" result="shadowBlurOuter1" stdDeviation=".5"/><feColorMatrix in="shadowBlurOuter1" values="0 0 0 0 0 0 0 0 0 0 0 0 0 0 0 0 0 0 0.204257246 0"/></filter></defs><g fill="none" fill-rule="evenodd"><use fill="#000" filter="url(#a)" xlink:href="#b"/><use fill="#7B346E" xlink:href="#b"/><use fill="url(#c)" style="mix-blend-mode:soft-light" xlink:href="#b"/><circle cx="16" cy="15" r="14.5" stroke="#000" stroke-opacity=".097"/><g fill-rule="nonzero"><use fill="#000" filter="url(#d)" xlink:href="#e"/><use fill="#FFF" fill-rule="evenodd" xlink:href="#e"/></g></g></svg>
